X:33
T:Caisle\'an na n\'Or
R:hornpipe
C:Martin "Junior" Crehan (1908-1998)
H:Bars 4 of both parts also played |DG~G2 DF~F2|
D:Kevin Burke: If the Cap Fits
D:Matt Molloy & Sean Keane: Contentment is Wealth
Z:id:hn-hornpipe-33
M:C|
K:Gdor
GF|DGGF G2 (3A=Bc|dcde f2ga|gfdc AdcA|DGGE FEDC|
DGGF G2 (3A=Bc|dcde f2ga|gfdc AdcA|G2GF G2:|
|:(3A=Bc|dgga _b2ag|gfde f2ga|gfdc AdcA|DGGE FEDC|
DGGF G2 (3A=Bc|dcde f2ga|gfdc AdcA|G2GF G2:|
<end>
<start>
